X: 30451
T: Old Wheel Of Fortune, The
R: reel
M: 4/4
K: Dmajor
d3 B|:AFED CDEG|(3FED AD BdcB|AFED CDEG|1 FGEF DcdB:|2 FGEF Dfed||
cA (3AAA fAec|Acec dcBc|Acec Acea|fdBc dfed|
cA (3AAA fAec|Acec dcBc|defd cdec|Bcde fdBd||

